src/sources/forus-platform/resources/_platform-common/assets/img/features/icons/bng/icon-2.svg

<svg width="59" height="58" viewBox="0 0 59 58" fill="none" xmlns="http://www.w3.org/2000/svg">
    <rect x="0.5" width="58" height="58" rx="8" fill="#F7F9FC"/>
    <path d="M17.2332 19.9138C19.0005 19.9138 20.4332 18.478 20.4332 16.7069C20.4332 14.9358 19.0005 13.5 17.2332 13.5C15.4659 13.5 14.0332 14.9358 14.0332 16.7069C14.0332 18.478 15.4659 19.9138 17.2332 19.9138Z" fill="#0A33C1"/>
    <path d="M32.1668 19.9138C33.9341 19.9138 35.3668 18.478 35.3668 16.7069C35.3668 14.9358 33.9341 13.5 32.1668 13.5C30.3995 13.5 28.9668 14.9358 28.9668 16.7069C28.9668 18.478 30.3995 19.9138 32.1668 19.9138Z" fill="#0A33C1"/>
    <path d="M19.8999 16.1724H27.8999V17.2413H19.8999V16.1724Z" fill="#9CB8F8"/>
    <path d="M29.5 40.7586H37.5V41.8276H29.5V40.7586Z" fill="#9CB8F8"/>
    <path d="M38.8335 29.5344H28.9668V28.4654H38.8335C41.9215 28.4654 44.4335 25.9478 44.4335 22.8534C44.4335 19.759 41.9215 17.2413 38.8335 17.2413H34.8335V16.1724H38.8335C42.5095 16.1724 45.5001 19.1694 45.5001 22.8534C45.5001 26.5373 42.5095 29.5344 38.8335 29.5344Z" fill="#9CB8F8"/>
    <path d="M22.5667 41.8274H20.1667C16.4906 41.8274 13.5 38.8304 13.5 35.1465C13.5 31.4625 16.4906 28.4655 20.1667 28.4655H22.0333V29.5344H20.1667C17.0786 29.5344 14.5667 32.0521 14.5667 35.1465C14.5667 38.2408 17.0786 40.7585 20.1667 40.7585H22.5667V41.8274Z" fill="#9CB8F8"/>
    <path d="M26.8333 44.5C28.6006 44.5 30.0333 43.0642 30.0333 41.2931C30.0333 39.522 28.6006 38.0862 26.8333 38.0862C25.066 38.0862 23.6333 39.522 23.6333 41.2931C23.6333 43.0642 25.066 44.5 26.8333 44.5Z" fill="#0A33C1"/>
    <path d="M41.7669 44.5C43.5342 44.5 44.9669 43.0642 44.9669 41.2931C44.9669 39.522 43.5342 38.0862 41.7669 38.0862C39.9996 38.0862 38.5669 39.522 38.5669 41.2931C38.5669 43.0642 39.9996 44.5 41.7669 44.5Z" fill="#305DFC"/>
    <path d="M24.7 32.2068C26.4673 32.2068 27.9 30.771 27.9 28.9999C27.9 27.2288 26.4673 25.793 24.7 25.793C22.9327 25.793 21.5 27.2288 21.5 28.9999C21.5 30.771 22.9327 32.2068 24.7 32.2068Z" fill="#0A33C1"/>
    <path d="M18.8966 13.9711C19.1929 14.4572 19.3667 15.0266 19.3667 15.6379C19.3667 17.409 17.934 18.8448 16.1667 18.8448C15.5566 18.8448 14.9885 18.6706 14.5034 18.3737C15.0654 19.296 16.0761 19.9138 17.2334 19.9138C19.0007 19.9138 20.4334 18.478 20.4334 16.7069C20.4334 15.5471 19.817 14.5343 18.8966 13.9711Z" fill="#092DAA"/>
    <path d="M33.8297 13.9711C34.126 14.4572 34.2998 15.0266 34.2998 15.6379C34.2998 17.409 32.8671 18.8448 31.0998 18.8448C30.4897 18.8448 29.9216 18.6706 29.4365 18.3737C29.9985 19.296 31.0092 19.9138 32.1665 19.9138C33.9338 19.9138 35.3665 18.478 35.3665 16.7069C35.3665 15.5471 34.7501 14.5343 33.8297 13.9711Z" fill="#092DAA"/>
    <path d="M28.4967 38.5571C28.793 39.0433 28.9668 39.6126 28.9668 40.224C28.9668 41.9951 27.5341 43.4309 25.7668 43.4309C25.1567 43.4309 24.5886 43.2567 24.1035 42.9598C24.6655 43.8821 25.6762 44.4998 26.8335 44.4998C28.6008 44.4998 30.0335 43.0641 30.0335 41.2929C30.0335 40.1332 29.417 39.1203 28.4967 38.5571Z" fill="#092DAA"/>
    <path d="M43.4303 38.5573C43.7266 39.0434 43.9004 39.6127 43.9004 40.2241C43.9004 41.9952 42.4677 43.431 40.7004 43.431C40.0903 43.431 39.5222 43.2568 39.0371 42.9599C39.5991 43.8822 40.6098 44.5 41.7671 44.5C43.5344 44.5 44.9671 43.0642 44.9671 41.2931C44.9671 40.1333 44.3507 39.1204 43.4303 38.5573Z" fill="#1C45D3"/>
    <path d="M26.3634 26.2641C26.6597 26.7503 26.8335 27.3196 26.8335 27.931C26.8335 29.7021 25.4008 31.1378 23.6335 31.1378C23.0234 31.1378 22.4553 30.9637 21.9702 30.6668C22.5322 31.5891 23.5429 32.2068 24.7002 32.2068C26.4675 32.2068 27.9002 30.771 27.9002 28.9999C27.9002 27.8402 27.2838 26.8273 26.3634 26.2641Z" fill="#092DAA"/>
    <path d="M26.677 18.6882L25.9229 17.9324L27.1458 16.7069L25.9229 15.4813L26.677 14.7255L28.6541 16.7069L26.677 18.6882Z" fill="#6892FF"/>
    <path d="M30.1895 30.9813L28.2124 28.9999L30.1895 27.0186L30.9436 27.7744L29.7207 28.9999L30.9436 30.2255L30.1895 30.9813Z" fill="#6892FF"/>
    <path d="M36.2771 43.2744L35.5229 42.5186L36.7459 41.2931L35.5229 40.0676L36.2771 39.3118L38.2542 41.2931L36.2771 43.2744Z" fill="#6892FF"/>
    <path d="M21.344 43.2744L20.5898 42.5186L21.8128 41.2931L20.5898 40.0676L21.344 39.3118L23.3211 41.2931L21.344 43.2744Z" fill="#6892FF"/>
</svg>

<svg width="59" height="58" fill="none" xmlns="http://www.w3.org/2000/svg"><rect x=".5" width="58" height="58" rx="8" fill="#F7F9FC"/><path d="M17.233 19.914c1.767 0 3.2-1.436 3.2-3.207a3.203 3.203 0 0 0-3.2-3.207 3.203 3.203 0 0 0-3.2 3.207 3.203 3.203 0 0 0 3.2 3.207ZM32.167 19.914c1.767 0 3.2-1.436 3.2-3.207a3.203 3.203 0 0 0-3.2-3.207 3.203 3.203 0 0 0-3.2 3.207 3.203 3.203 0 0 0 3.2 3.207Z" fill="#0A33C1"/><path d="M19.9 16.172h8v1.07h-8v-1.07ZM29.5 40.759h8v1.069h-8v-1.07ZM38.834 29.534h-9.867v-1.069h9.867c3.087 0 5.6-2.517 5.6-5.612 0-3.094-2.512-5.612-5.6-5.612h-4v-1.069h4c3.675 0 6.666 2.997 6.666 6.681s-2.99 6.681-6.666 6.681ZM22.567 41.827h-2.4c-3.676 0-6.667-2.997-6.667-6.68 0-3.684 2.99-6.681 6.667-6.681h1.866v1.068h-1.866c-3.088 0-5.6 2.518-5.6 5.613 0 3.094 2.512 5.611 5.6 5.611h2.4v1.07Z" fill="#9CB8F8"/><path d="M26.833 44.5c1.768 0 3.2-1.436 3.2-3.207a3.203 3.203 0 0 0-3.2-3.207 3.203 3.203 0 0 0-3.2 3.207 3.203 3.203 0 0 0 3.2 3.207Z" fill="#0A33C1"/><path d="M41.767 44.5c1.767 0 3.2-1.436 3.2-3.207a3.203 3.203 0 0 0-3.2-3.207 3.203 3.203 0 0 0-3.2 3.207 3.203 3.203 0 0 0 3.2 3.207Z" fill="#305DFC"/><path d="M24.7 32.207c1.767 0 3.2-1.436 3.2-3.207a3.203 3.203 0 0 0-3.2-3.207A3.203 3.203 0 0 0 21.5 29a3.203 3.203 0 0 0 3.2 3.207Z" fill="#0A33C1"/><path d="M18.897 13.971a3.203 3.203 0 0 1-2.73 4.874c-.61 0-1.179-.174-1.664-.471a3.193 3.193 0 0 0 2.73 1.54c1.768 0 3.2-1.436 3.2-3.207 0-1.16-.616-2.173-1.536-2.736ZM33.83 13.971a3.203 3.203 0 0 1-2.73 4.874c-.61 0-1.178-.174-1.663-.471a3.193 3.193 0 0 0 2.73 1.54c1.767 0 3.2-1.436 3.2-3.207 0-1.16-.617-2.173-1.537-2.736ZM28.497 38.557a3.203 3.203 0 0 1-2.73 4.874c-.61 0-1.178-.174-1.663-.471a3.193 3.193 0 0 0 2.73 1.54c1.767 0 3.2-1.436 3.2-3.207 0-1.16-.617-2.173-1.537-2.736Z" fill="#092DAA"/><path d="M43.43 38.557a3.203 3.203 0 0 1-2.73 4.874c-.61 0-1.178-.174-1.663-.471a3.193 3.193 0 0 0 2.73 1.54c1.767 0 3.2-1.436 3.2-3.207 0-1.16-.616-2.173-1.537-2.736Z" fill="#1C45D3"/><path d="M26.363 26.264a3.203 3.203 0 0 1-2.73 4.874c-.61 0-1.178-.174-1.663-.471a3.193 3.193 0 0 0 2.73 1.54c1.768 0 3.2-1.436 3.2-3.207 0-1.16-.616-2.173-1.537-2.736Z" fill="#092DAA"/><path d="m26.677 18.688-.754-.756 1.223-1.225-1.223-1.226.754-.755 1.977 1.98-1.977 1.982ZM30.19 30.981 28.211 29l1.977-1.981.755.755L29.72 29l1.223 1.226-.755.755ZM36.277 43.274l-.754-.755 1.223-1.226-1.223-1.225.754-.756 1.977 1.981-1.977 1.981ZM21.344 43.274l-.754-.755 1.223-1.226-1.223-1.225.754-.756 1.977 1.981-1.977 1.981Z" fill="#6892FF"/></svg>
